X: 30282
U: Q=!diminuendo(!
U: q=!diminuendo)!
M: 3/4
L: 1/8
K: F
z2 !f!|\
.F2.F.F.F.F | F2A2c2 | A2c2f2 | (fe)(ge)c2 |\
.c2.c.c.c.c | c2e2g2 | b2d2e2  | f4 !p!:|\
|: c2 |\
d2c2B2 | G2G2c2 | d2c2B2 | F2FFF |\
|: F2 |\
QB2(dqcdB) | QA2(cqBcA) | QG2(AqGBG) | QF4qy :|\
|: c2 |\
(d4c2) | (f4e2) | (g4^f2) | (Qa4g2q) |\
(bagfed) | (d2c2).c2 | c2d2e2 | f4 :|


